static/assets/img/icons/theme/weather/temperature-empty.svg

<svg height="24" viewBox="0 0 24 24" width="24" xmlns="http://www.w3.org/2000/svg"><g fill="none" fill-rule="evenodd"><path d="m0 0h24v24h-24z" opacity="0"/><path d="m13.9985481 12.5339049-.9985481-.5776289v-6.956276c0-.26704772-.5169918-.99120487-1-1-.5159071-.00939419-1 .71476297-1 1v6.956276l-.9985481.5776289c-1.22981552.7114099-2.0014519 2.0204632-2.0014519 3.4660951 0 2.209139 1.790861 4 4 4s4-1.790861 4-4c0-1.4456319-.7716364-2.7546852-2.0014519-3.4660951zm4.0014519 3.4660951c0 3.3137085-2.6862915 6-6 6s-6-2.6862915-6-6c0-2.2208471 1.20659589-4.1598786 3-5.1973068v-5.8026932c0-1.65685425 1.3431458-3 3-3s3 1.34314575 3 3v5.8026932c1.7934041 1.0374282 3 2.9764597 3 5.1973068z" fill="#000" fill-rule="nonzero"/></g></svg>

<svg width="24px" height="24px" viewBox="0 0 24 24" version="1.1" xmlns="http://www.w3.org/2000/svg" xmlns:xlink="http://www.w3.org/1999/xlink">
    <title>Icon For Temperature-empty</title>
    <g stroke="none" stroke-width="1" fill="none" fill-rule="evenodd">
        <polygon points="0 0 24 0 24 24 0 24" opacity="0"></polygon>
        <path d="M13.9985481,12.5339049 L13,11.956276 L13,5 C13,4.73295228 12.4830082,4.00879513 12,4 C11.4840929,3.99060581 11,4.71476297 11,5 L11,11.956276 L10.0014519,12.5339049 C8.77163638,13.2453148 8,14.5543681 8,16 C8,18.209139 9.790861,20 12,20 C14.209139,20 16,18.209139 16,16 C16,14.5543681 15.2283636,13.2453148 13.9985481,12.5339049 Z M18,16 C18,19.3137085 15.3137085,22 12,22 C8.6862915,22 6,19.3137085 6,16 C6,13.7791529 7.20659589,11.8401214 9,10.8026932 L9,5 C9,3.34314575 10.3431458,2 12,2 C13.6568542,2 15,3.34314575 15,5 L15,10.8026932 C16.7934041,11.8401214 18,13.7791529 18,16 Z" fill="#000000" fill-rule="nonzero"></path>
    </g>
</svg>
